Obsidian/actions/22s/debug-step-over.svg

<svg height="22" viewBox="0 0 22 22" width="22" xmlns="http://www.w3.org/2000/svg"><path d="m3.0097656 1c-2.24869997 0-2 2-2 2v12h13.9921874v-10h-1.998047v8h-9.9941404v-8h6.9921874v-4zm7.9921874 0 2 3 2-3zm-1.4121092 4.9941406-.0117188.0058594v.5917969c.71028 0 .71875.2391287.71875 1.1054687.007.0804.001991.1986244.025391.3027344.0532.37563.224195.8013462.697265 1.0039062-.59869.25635-.722656.8755657-.722656 1.2910158-.0137.19066-.017181.589108-.050781.705078-.0635.28989-.218459.408203-.667969.408203v.591797c.95725 0 1.410941-.28836 1.494141-1 .004-.10814.022578-.302633.017578-.476562 0-.5569105.020805-1.2011724.609375-1.2011724h.304687v-.6445312h-.304687c-.40273 0-.531945-.3088144-.578125-.6777344-.007-.15866-.03125-.7460938-.03125-.7460938.01-.9099999-.44-1.2597656-1.5000002-1.2597656zm-3.1542969.0058594c-1.0655 0-1.5136719.3522562-1.5136719 1.2539062 0 0-.02455.5874338-.03125.7460938-.0462.36892-.175395.6777344-.578125.6777344h-.3046875v.6445312h.3046875c.58855 0 .609375.6442319.609375 1.2011724-.005.17393.0135781.368422.0175781.476562.0833.71164.5388438 1 1.4960938 1v-.591797c-.44951 0-.6063919-.118313-.6699219-.408203-.0337-.11597-.0371813-.514418-.0507812-.705078 0-.4154601-.1239663-1.0347157-.7226563-1.2910158.47307-.20257.6440756-.6282862.6972656-1.0039062.0239-.10411.0185907-.2223044.0253907-.3027344 0-.86631.0103931-1.1054687.7207031-1.1054687z" fill="#bebebe" transform="translate(3 3)"/></svg>

<svg xmlns="http://www.w3.org/2000/svg" width="22" height="22" viewBox="0 0 22 22">
 <defs>
  <style id="current-color-scheme" type="text/css">
   .ColorScheme-Text { color:#bebebe; } .ColorScheme-Highlight { color:#4285f4; }
  </style>
 </defs>
 <path style="fill:currentColor" class="ColorScheme-Text" d="M 3.0097656 1 C 0.76106563 1 1.0097656 3 1.0097656 3 L 1.0097656 15 L 15.001953 15 L 15.001953 5 L 13.003906 5 L 13.003906 13 L 3.0097656 13 L 3.0097656 5 L 10.001953 5 L 10.001953 1 L 3.0097656 1 z M 11.001953 1 L 13.001953 4 L 15.001953 1 L 11.001953 1 z M 9.5898438 5.9941406 L 9.578125 6 L 9.578125 6.5917969 C 10.288405 6.5917969 10.296875 6.8309256 10.296875 7.6972656 C 10.303875 7.7776656 10.298866 7.89589 10.322266 8 C 10.375466 8.37563 10.546461 8.8013462 11.019531 9.0039062 C 10.420841 9.2602562 10.296875 9.8794719 10.296875 10.294922 C 10.283175 10.485582 10.279694 10.88403 10.246094 11 C 10.182594 11.28989 10.027635 11.408203 9.578125 11.408203 L 9.578125 12 C 10.535375 12 10.989066 11.71164 11.072266 11 C 11.076266 10.89186 11.094844 10.697367 11.089844 10.523438 C 11.089844 9.9665275 11.110649 9.3222656 11.699219 9.3222656 L 12.003906 9.3222656 L 12.003906 8.6777344 L 11.699219 8.6777344 C 11.296489 8.6777344 11.167274 8.36892 11.121094 8 C 11.114094 7.84134 11.089844 7.2539062 11.089844 7.2539062 C 11.099844 6.3439063 10.649844 5.9941406 9.5898438 5.9941406 z M 6.4355469 6 C 5.3700469 6 4.921875 6.3522562 4.921875 7.2539062 C 4.921875 7.2539062 4.897325 7.84134 4.890625 8 C 4.844425 8.36892 4.71523 8.6777344 4.3125 8.6777344 L 4.0078125 8.6777344 L 4.0078125 9.3222656 L 4.3125 9.3222656 C 4.90105 9.3222656 4.921875 9.9664975 4.921875 10.523438 C 4.916875 10.697368 4.9354531 10.89186 4.9394531 11 C 5.0227531 11.71164 5.4782969 12 6.4355469 12 L 6.4355469 11.408203 C 5.9860369 11.408203 5.829155 11.28989 5.765625 11 C 5.731925 10.88403 5.7284437 10.485582 5.7148438 10.294922 C 5.7148438 9.8794619 5.5908775 9.2602063 4.9921875 9.0039062 C 5.4652575 8.8013362 5.6362631 8.37562 5.6894531 8 C 5.7133531 7.89589 5.7080438 7.7776956 5.7148438 7.6972656 C 5.7148438 6.8309556 5.7252369 6.5917969 6.4355469 6.5917969 L 6.4355469 6 z" transform="translate(3 3)"/>
</svg>
